X:1883
T:Bourrée - Qu'il est doux de ne rien faire (V. Leutreau)
C:Trad 1, 104
M:3/8
L:1/16
K:C
G2|:cBcdec|fedcBc|dGABcd|B2 (3GGG GG|\
cBcdec|fedcBc|dGABcd|1 c4G2:|2 c4c2||
|:ABcAdc|B2 (3GGG GG|ABcdef|e2d2c2|\
ABcAdc|B2 (3GGG GG|ABcdef|1 g4B2:|2 g6||


